X: 0601
T: Roxburgh Castle - 8x32R
C: Collected in Roxburghshire
R: Reel (8x32)
B: RSCDS 6-1
Z: Anselm Lingnau <anselm@strathspey.org>
M: C|
L: 1/8
P: Roxburgh Castle   [A]
K: A
E |\
"A"A2Ac ecAc | "D"d2df "A"ecAc | "D"d2fd "A"c2ec | "Bm"B2B2 "E"BdcB |\
"A"A2Ac ecAc | "D"d2df "A"edcd | "A"eagf "E7"edcB | "A"A2"D"A2 "A"A3 :|
|: e |\
"A"aece fece | aece fece | "D"d2fd "A"c2ec | "B"B2B2 "E7"BdcB |\
"A"A2Ac ecAc | "D"d2df "A"edcd | "A"eagf "E7"edcB | "A"A2"D"A2 "A"A3 :|
P: Roxburgh Castle   [G]
K: G
D |\
"G"G2GB dBGB | "C"c2ce "G"dBGB | "C"c2ec "G"B2dB | "Am"A2A2 "D"AcBA |\
"G"G2GB dBGB | "C"c2ce "G"dcBc | "G"dgfe "D7"dcBA | "G"G2"C"G2 "G"G3 :|
|: d |\
"G"gdBd edBd | gdBd edBd | "C"c2ec "G"B2dB | "A"A2A2 "D7"AcBA |\
"G"G2GB dBGB | "C"c2ce "G"dcBc | "G"dgfe "D7"dcBA | "G"G2"C"G2 "G"G3 :|
